piano: (tempo! 120, vol! 45) o5 r2 c8 < r8 (quant 30)g8 r8 (quant 30)e8 r8 r8 (quant 30)a8 | 
(quant 30)d8 r8 r8 (quant 30)g8 (quant 30)c8 r8 r8 > e8 ~ | <f8 r8 r8 > d8 ~ < (quant30)e8 r8 r8 > (quant 30)c8 | 
< d8 ~ a8 < a8 ~ b8 d8 ~ c8 r8 (quant 30)b8/d8 | d8/f8 ~ c8/e8 r8 d8/f8 f8/a8 ~ e8/g8 r8 (quant 30)d8/>b8 | 
